X:432
T:Snug in a Blanket
R:jig
S:Anna-Wendy Stevenson on Youtube
H:See also #379
Z:hn-jig-432
M:6/8
L:1/8
K:D
e2f gfg | AAA g2e | faf gec | dcd f2d |
e2f gfg | AAA g2e | faf gec | dfe d3 :|
|: c2d eAA | eAf ecA | c2d ecA | Bcd f2e |
c2d eAA | eAf ecA | f/g/af gec |1 dfe d3 :|2 dfe d2f ||

